X:1
T:Title
%%score { ( 1 3 ) | ( 2 4 ) }
L:1/8
Q:1/4=120
M:4/4
K:G
V:1 treble nm="Church Organ"
V:3 treble 
V:2 treble 
V:4 treble 
V:1
 z4 z2 d2 | c2 z2 z4 | B6 B2 | A2 z A, E2 E2 | D6 D2 | z4 z2 .G2 | z2 [EA]2 z4 | %7
 .E2 [GB]2[K:bass][K:treble] z4 | [B,G]6 z2 |] %9
V:2
 z4 z2 [G,B,G]2 | .[A,CE]2 [B,DG]2 [CEG]2 [DF]2 | [G,DG]6[K:bass] [G,D]2 | %3
 [F,A,D]2 [G,B,]F, [G,B,D]2 [A,^C]2 | [D,F,]6 [D,F,]2 | [C,G,]2 [A,,A,]2 [E,G,]2 G,-[D,G,] | %6
 z G, .[C,F,]2 [B,,F,]2 [E,^G,]2 | [A,,A,]2 .[B,,G,]2 G,A, z C | G,,6 z2 |] %9
V:3
 x8 | z F B2 A2 Bc | x8 | z2 D2 z4 | x8 | [DE]2 [CF]2 [B,G]2 B-[FB] | .[A,EA]2 z E, [^DB]2 [EB]2 | %7
 c-[Fc] z[K:bass] C,[K:treble] [GA]2 .[B,FA]2 | x8 |] %9
V:4
 x8 | x8 | x6[K:bass] x2 | x8 | x8 | z4 z2 .E,2 | C,2 z2 z4 | z4 D,2 D,2 | x8 |] %9

